build/img/icons/menu.svg

<svg width="16" height="10" viewBox="0 0 16 10" fill="none" xmlns="http://www.w3.org/2000/svg">
<path d="M0.562988 4.7C0.562988 4.3134 0.876389 4 1.26299 4H14.863C15.2496 4 15.563 4.3134 15.563 4.7C15.563 5.0866 15.2496 5.4 14.863 5.4H1.26299C0.876389 5.4 0.562988 5.0866 0.562988 4.7Z" fill="white"/>
<path d="M0.562988 8.7C0.562988 8.3134 0.876389 8 1.26299 8H14.863C15.2496 8 15.563 8.3134 15.563 8.7C15.563 9.0866 15.2496 9.4 14.863 9.4H1.26299C0.876389 9.4 0.562988 9.0866 0.562988 8.7Z" fill="white"/>
<path d="M0.562988 0.7C0.562988 0.313401 0.876389 0 1.26299 0H14.863C15.2496 0 15.563 0.313401 15.563 0.7C15.563 1.0866 15.2496 1.4 14.863 1.4H1.26299C0.876389 1.4 0.562988 1.0866 0.562988 0.7Z" fill="white"/>
</svg>

<svg width="16" height="10" fill="none" xmlns="http://www.w3.org/2000/svg"><path d="M.563 4.7a.7.7 0 01.7-.7h13.6a.7.7 0 110 1.4h-13.6a.7.7 0 01-.7-.7zm0 4a.7.7 0 01.7-.7h13.6a.7.7 0 110 1.4h-13.6a.7.7 0 01-.7-.7zm0-8a.7.7 0 01.7-.7h13.6a.7.7 0 110 1.4h-13.6a.7.7 0 01-.7-.7z" fill="#fff"/></svg>
